src/Assets/icon/icon_pool.svg

<svg fill="none" height="24" viewBox="0 0 24 24" width="24" xmlns="http://www.w3.org/2000/svg"><path d="m18.471 9.25349c-.5087-.7553-1.2127-1.35852-2.0371-1.74542-.8243-.38691-1.7382-.54303-2.6442-.45173-.3783-.95505-.9336-1.90205-2.0952-2.04692-1.1026-.11267-2.03891.80482-2.57546 1.7089-.36715.62687-.65634 1.29625-.86115 1.99326-.14755.53655-.23609 1.01139-.23609 1.01139l-1.3977 1.16163c.28437-1.39771.26828-2.97783-.62775-4.08848-.22165-.2926-.52506-.51292-.87189-.63313-.55801-.17437-.96847.02683-1.03822.53655-.14486 1.04895.94164 1.22869.22267 3.64316-.39086 1.5036-.41111 3.0796-.05902 4.5928.17274.8457.66098 1.5939 1.36551 2.0925.37021.2361 1.03017.3756 1.40843.0644s.34071-.6921.21194-1.1053c-.12878-.4131-.53655-.8987-.65727-2.2588.4982-.5181 1.03641-.9962 1.60963-1.4299.26111.8848.7137 1.7014 1.32569 2.3917.61198.6903 1.36838 1.2376 2.21548 1.6029-.5692 1.2619-1.5196 2.3136-2.71757 3.0073.65459.4024 1.73837.4883 2.85447-.0161 1.0189-.5144 1.8263-1.3683 2.283-2.4144.8958.0427 1.786-.1629 2.5723-.5941.7864-.4313 1.4382-1.0715 1.8837-1.8499.4477-.7936.6716-1.6938.648-2.6047s-.2939-1.7983-.7822-2.56761zm-8.52568-2.16496c.35148-.58215.75118-.9309 1.21528-.85847.4641.07244.7029.63313.8531 1.21259-1.0035.33846-1.9503.82591-2.80881 1.44599.15796-.63285.4074-1.23927.74043-1.80011zm2.12468 7.80677c-.0778-.0483-2.51368-1.3897-2.9912-3.391.9418-.8624 2.0255-1.55582 3.2032-2.0496.2413 1.8123.1696 3.6526-.212 5.4406zm2.6828.0322c-.0658.0408-.1402.0656-.2173.0724.4198-2.0112.3721-4.0919-.1395-6.08175.2592-.01865.5197.00767.7699.0778 1.1938.29242 1.6096 1.67405 1.6096 2.76585-.008 1.6472-.6814 2.7123-2.0388 3.1737z" fill="#595959"/></svg>

<svg width="24" height="24" viewBox="0 0 24 24" fill="none" xmlns="http://www.w3.org/2000/svg">
<path d="M18.471 9.25349C17.9623 8.49819 17.2583 7.89497 16.4339 7.50807C15.6096 7.12116 14.6957 6.96504 13.7897 7.05634C13.4114 6.10129 12.8561 5.15429 11.6945 5.00942C10.5919 4.89675 9.65559 5.81424 9.11904 6.71832C8.75189 7.34519 8.4627 8.01457 8.25789 8.71158C8.11034 9.24813 8.0218 9.72297 8.0218 9.72297L6.6241 10.8846C6.90847 9.48689 6.89238 7.90677 5.99635 6.79612C5.7747 6.50352 5.47129 6.2832 5.12446 6.16299C4.56645 5.98862 4.15599 6.18982 4.08624 6.69954C3.94138 7.74849 5.02788 7.92823 4.30891 10.3427C3.91805 11.8463 3.8978 13.4223 4.24989 14.9355C4.42263 15.7812 4.91087 16.5294 5.6154 17.028C5.98561 17.2641 6.64557 17.4036 7.02383 17.0924C7.40209 16.7812 7.36454 16.4003 7.23577 15.9871C7.10699 15.574 6.69922 15.0884 6.5785 13.7283C7.0767 13.2102 7.61491 12.7321 8.18813 12.2984C8.44924 13.1832 8.90183 13.9998 9.51382 14.6901C10.1258 15.3804 10.8822 15.9277 11.7293 16.293C11.1601 17.5549 10.2097 18.6066 9.01173 19.3003C9.66632 19.7027 10.7501 19.7886 11.8662 19.2842C12.8851 18.7698 13.6925 17.9159 14.1492 16.8698C15.045 16.9125 15.9352 16.7069 16.7215 16.2757C17.5079 15.8444 18.1597 15.2042 18.6052 14.4258C19.0529 13.6322 19.2768 12.732 19.2532 11.8211C19.2296 10.9102 18.9593 10.0228 18.471 9.25349ZM9.94532 7.08853C10.2968 6.50638 10.6965 6.15763 11.1606 6.23006C11.6247 6.3025 11.8635 6.86319 12.0137 7.44265C11.0102 7.78111 10.0634 8.26856 9.20489 8.88864C9.36285 8.25579 9.61229 7.64937 9.94532 7.08853ZM12.07 14.8953C11.9922 14.847 9.55632 13.5056 9.0788 11.5043C10.0206 10.6419 11.1043 9.94848 12.282 9.4547C12.5233 11.267 12.4516 13.1073 12.07 14.8953ZM14.7528 14.9275C14.687 14.9683 14.6126 14.9931 14.5355 14.9999C14.9553 12.9887 14.9076 10.908 14.396 8.91815C14.6552 8.8995 14.9157 8.92582 15.1659 8.99595C16.3597 9.28837 16.7755 10.67 16.7755 11.7618C16.7675 13.409 16.0941 14.4741 14.7367 14.9355L14.7528 14.9275Z" fill="#595959"/>
</svg>
